!!!COM: Scarlatti, Domenico
!!!CDT: 1685-1757
!!!OTL: Sonata in F-sharp minor, L.481, K.25
!!!SCT: K. 025
!!!SCT: L. 481
!!!OMD: Allegro ([quarter]=112)
**kern	**kern	**dynam
*staff2	*staff1	*staff1/2
*Icemba	*Icemba	*
*I"L.481 (K.25)	*I"L.481 (K.25)	*
*>[A,A,B,B]	*>[A,A,B,B]	*>[A,A,B,B]
*>norep[A,B]	*>norep[A,B]	*>norep[A,B]
*>A	*>A	*>A
*clefF4	*clefG2	*
*k[f#c#g#]	*k[f#c#g#]	*
*f#:	*f#:	*
*M2/4	*M2/4	*
*MM112	*MM112	*
=1-	=1-	=1-
!	!	!LO:DY:rj
2r	(16f#LL	p
.	16a	.
.	16g#	.
.	16aJJ	.
.	16f#LL	.
.	16c#	.
.	16b	.
.	16g#JJ	.
=2	=2	=2
2r	16aLL<	.
.	16f#	.
.	16dd	.
.	16bJJ	.
.	16cc#LL	<
.	16a	.
.	16gg#	.
.	16ee#JJ	.
=3	=3	=3
2r	16ff#LL	[ >
.	16cc#	.
.	16dd	.
.	16bJJ	.
.	16cc#LL<	.
.	16a	.
.	16b	.
.	16g#JJ	.
=4	=4	=4
(16F#LL	4.a)	]
16A	.	.
16G#	.	.
16AJJ	.	.
16F#LL	.	.
16C#	.	.
16B	(16g#LL	.
16G#JJ	16e#JJ	.
!!LO:LB:g=z
=5	=5	=5
16ALL	8f#'L)	.
16F#	.	.
16d	(16bL	.
16BJJ	16g#JJ	<
16c#LL	8a'L)	.
16A	.	.
16g#	(16bL	.
16e#JJ	16g#JJ	.
=6	=6	=6
8f#')	16aLL	[
.	16cc#	.
(8dL	16ff#	p
.	16bJJ	.
8c#	16eeLL	.
.	16a	.
8BJ	16dd	.
.	16g#JJ	.
=7	=7	=7
8AL	16cc#LL	.
.	16f#	.
8G#	16b	.
.	16e#JJ	.
8F#	16aLL	.
.	16f#	.
8C#J	16b	.
.	16g#JJ)	.
=8	=8	=8
8FF#')	(32aLLL	mf
.	32g#J	.
.	16f#JJ)	.
(8dL	(16ff#LL	p
.	16bJJ	.
8c#	16eenLL	.
.	16a	.
8BJ	16dd	.
.	16g#JJ	.
!!LO:LB:g=z
=9	=9	=9
8AL	16cc#LL	.
.	16f#	.
8G#	16b	.
.	16e#JJ	.
8F#	16aLL	.
.	16f#	.
8C#J	16b	.
.	16g#JJ)	.
=10	=10	=10
8FF#')	(32aLLL	mf
.	32g#J	.
.	16f#JJ)	.
(8dL	(16ff#LL	p
.	16bJJ	.
8c#	16eenLL	.
.	16a	.
8BJ	16dd	.
.	16g#JJ	.
=11	=11	=11
8AL	16cc#LL	.
.	16f#	.
8G#	16b	.
.	16e#JJ	.
8F#	16aLL	.
.	16f#	.
8C#J	16b	.
.	16g#JJ)	.
=12	=12	=12
*	*^	*
8FF#')	(32aLLL	8ryy	mf
.	32g#J	.	.
.	16f#JJ)	.	.
!	!LO:TX:a:i:t=m.s.	!	!LO:DY:rj
8ryy	(8cc#L	(16c#LL	p
.	.	16f#JJ	.
4ryy	8dd^	16aLL	.
.	.	16f#	.
.	8cc#J)	16c#	.
.	.	16f#JJ	.
!!LO:LB:g=z
=13	=13	=13	=13
8C#	8ryy	16g#LL	.
.	.	16e#	.
8ryy	(8cc#L	16c#	.
.	.	16e#JJ	.
4ryy	8dd^	16g#LL	.
.	.	16e#	.
.	8cc#J)	16c#	.
.	.	16e#JJ	.
=14	=14	=14	=14
8F#	8ryy	16aLL	.
.	.	16f#	.
8ryy	(8cc#L	16c#	.
.	.	16f#JJ	.
4ryy	8dd^	16aLL	.
.	.	16f#	.
.	8cc#J)	16c#	.
.	.	16f#JJ	.
=15	=15	=15	=15
8C#	8ryy	16g#LL	.
.	.	16e#	.
8ryy	(8cc#L	16c#	.
.	.	16e#JJ	.
4ryy	8dd^	16g#LL	.
.	.	16e#	.
.	8cc#J)	16c#	.
.	.	16e#JJ)	.
*	*v	*v	*
=16	=16	=16
(8F#L	(16aLL	.
.	16c#	.
8G#	16B#	.
.	16g#JJ	.
8A	16c#LL	.
.	16f#	.
8B#J	16e	.
.	16d#JJ	.
!!LO:LB:g=z
=17	=17	=17
8c#L	16eLL	<
.	16ee	.
8d#	16f#	.
.	16dd#JJ	.
8e	16g#LL	.
.	16gg#	.
8aJ	16cc#	.
.	16ff#JJ	[
=18	=18	=18
8g#L	16gg#LL	.
.	16cc#	.
8f#	16dd#	.
.	16b#JJ	.
8e	16cc#LL	>
.	16aa	.
8d#J	16gg#	.
.	16ff#JJ)	]]
=19	=19	=19
8c#)	(32eeLLL	mf
.	32dd#J	.
.	16cc#JJ)	.
*	*^	*
8ryy	(8gg#L	(16g#LL	p
.	.	16cc#JJ	.
4ryy	8aa^	16eeLL	.
.	.	16cc#	.
.	8gg#J)	16g#	.
.	.	16cc#JJ	.
=20	=20	=20	=20
8G#	8ryy	16dd#LL	.
.	.	16b#	.
8ryy	(8gg#L	16g#	.
.	.	16b#JJ	.
4ryy	8aa^	16dd#LL	.
.	.	16b#	.
.	8gg#J)	16g#	.
.	.	16b#JJ	.
!!LO:LB:g=z
=21	=21	=21	=21
8C#	8ryy	16eeLL	.
.	.	16cc#	.
8ryy	(8gg#L	16g#	.
.	.	16cc#JJ	.
4ryy	8aa^	16eeLL	.
.	.	16cc#	.
.	8gg#J)	16g#	.
.	.	16cc#JJ	.
=22	=22	=22	=22
8G#	8ryy	16dd#LL	.
.	.	16b#	.
8ryy	(8gg#L	16g#	.
.	.	16b#JJ	.
4ryy	8aa^	16dd#LL	.
.	.	16b#	.
.	8gg#J)	16g#	.
.	.	16b#JJ)	.
*	*v	*v	*
=23	=23	=23
8c#	(32eeLLL	mf
.	32dd#J	.
.	16cc#JJ)	.
(8f#L	(16aaLL	p
.	16dd#JJ	.
8e	16gg#LL	.
.	16cc#	.
8d#J	16ff#	.
.	16b#JJ)	.
=24	=24	=24
8c#)	(32eeLLL	mf
.	32dd#J	.
.	16cc#JJ)	.
(8f#L	(16aaLL	p
.	16dd#JJ	.
8e	16gg#LL	.
.	16cc#	.
8d#J	16ff#	.
.	16b#JJ)	.
!!LO:LB:g=z
=25	=25	=25
8c#)	(32eeLLL	mf
.	32dd#J	.
.	16cc#JJ)	.
(8f#L	(16aaLL	p
.	16dd#JJ	.
8e	16gg#LL	<
.	16cc#	.
8dnJ	16ff#	.
.	16bnJJ	.
=26	=26	=26
*	*^	*
8c#L	8ryy	16ee#LL	.
.	.	16cc#)	.
8B	(8ee#XL	(16ddn	.
.	.	16bJJ	.
8A	8ff#	16cc#LL	.
.	.	16a	.
8G#J	8gg#J)	16b	.
.	.	16g#JJ)	.
*	*v	*v	*
=27	=27	=27
8F#)	(16aaLL	mf
.	16gg#	.
(8AL	16ff#	.
.	16eenJJ	.
8B	16dd#LL	.
.	16cc#	.
8D#J	16b	.
.	16aJJ	.
=28	=28	=28
8EL	16gg#LL	.
.	16ff#	.
8G#J)	16ee	.
.	16dd#JJ)	.
(8AAL	(32eeLLL	f
.	32dd#J	.
.	16cc#JJ)	.
8AJ	(16b#LL	mf
.	16cc#JJ	.
!!LO:LB:g=z
=29	=29	=29
8G#')	16dd#LL	.
.	16a	.
(<8BB#L	16g#	.
.	16f#JJ)	.
8C#	(32eLLL	f
.	32d#J	.
.	16c#JJ)	.
!!!ONB: linked slur needs to be added here
8AAJ	N(16B#LL	mf
.	16c#JJ	.
=30	=30	=30
*^	*	*
16d#>\LL	8GG#')	8ryy	.
!	!	!	!LO:DY:b
16B#/	.	.	p
16G#/	8ryy	(>8g#L	.
16B#/JJ	.	.	.
16d#>\LL	4ryy	8a^	.
16B#/	.	.	.
16G#/	.	8g#J)	.
16B#/JJ	.	.	.
=31	=31	=31	=31
16e>\LL	8C#	8ryy	.
16c#/	.	.	.
16G#/	8ryy	(>8g#L	.
16c#\JJ	.	.	.
16e>\LL	4ryy	8a^	.
16c#/	.	.	.
16G#/	.	8g#J)	.
16c#/JJ	.	.	.
=32	=32	=32	=32
16d#>\LL	8GG#	8ryy	.
16B#/	.	.	.
16G#/	8ryy	(>8g#L	.
16B#/JJ	.	.	.
16d#>\LL	4ryy	8a^	.
16B#/	.	.	.
16G#/	.	8g#J)	.
16B#/JJ	.	.	.
!!LO:LB:g=z
=33	=33	=33	=33
16e>\LL	8CC#	8ryy	.
16c#/	.	.	.
16G#/	8ryy	(>8g#L	.
16c#/JJ	.	.	.
16e>\LL	4ryy	8a^	.
16c#/	.	.	.
16G#/	.	8g#J)	.
16c#/JJ	.	.	.
=34	=34	=34	=34
16d#>\LL	8GG#	8ryy	.
16B#/	.	.	.
16G#/	8ryy	(>8g#L	.
16B#/JJ	.	.	.
16d#>\LL	4ryy	8a^	.
16B#/	.	.	.
16G#/	.	8g#J)	.
16B#/JJN)	.	.	.
*v	*v	*	*
=35	=35	=35
8C#	(32eLLL	mf
.	32d#J	.
.	16c#JJ)	.
(8BnL	(>16e#LL	p
.	16c#JJ	.
8A	16f#LL	<
.	16c#	.
8G#J	16g#	.
.	16c#JJ	.
=36	=36	=36
8F#L	16aLL	.
.	16c#	.
8E	16a#	.
.	16c#JJ	.
8D#	16b#LL	.
.	16d#	.
8C#J	16cc#	.
.	16eJJ	.
!!LO:LB:g=z
=37	=37	=37
8GG#'L<)	16dd#LL)	f
.	(16g#	p
8G#'J	16f##	.
.	16g#JJ	.
8A#'~ 8c#'~ 8d#'~L	16f##LL	.
.	16ee	.
8A# 8c# 8d#J	16dd#	mf
.	16eeJJ	.
=38	=38	=38
8G#' 8d#'L	16dd#LL	.
.	16g#	p
8G#' 8d#'J	16f##	.
.	16g#JJ	.
8A#'^ 8c#'^ 8d#'^L	16f##LL)	.
.	(16ff##	f
8A#' 8c#' 8d#'J	16gg#	.
.	16ff##JJ	.
=39	=39	=39
8G#' 8d#'L	16gg#LL>)	.
.	(16g#	p
8G#' 8d#'J	16f##	.
.	16g#JJ	.
8A#'~ 8c#'~ 8d#'~L	16f##LL	.
.	16ee	.
!!!ONB: Missinog # on dd in original edition:
8A#' 8c#' 8d#'J	16dd#y	mf
.	16eeJJ	.
=40	=40	=40
8G#' 8d#'L	16dd#LL	.
.	16g#	p
8G#' 8d#'J	16f##	.
.	16g#JJ	.
8A#'^ 8c#'^ 8d#'^L	16f##LL)	.
.	(16ff##	f
8A#' 8c#' 8d#'J	16gg#	.
.	16ff##JJ	.
!!LO:LB:g=z
=41	=41	=41
8G#' 8d#'	16gg#LL)	.
.	(16dd#	.
8F#X' 8d#'L	16cc#	.
.	16b#JJ	.
8E' 8c#'	16cc#LL	.
.	16ff#	.
8D#' 8B#'J	16ee	.
.	16dd#JJ	.
=42	=42	=42
8C#' 8c#'	16eeLL	.
.	16aa	.
(8F#^L<	16gg#	.
.	16ff#JJ	.
8G#')	16eeLL	.
.	16dd#	.
8GG#'J	16cc#	.
.	16b#JJ)	.
=43	=43	=43
8A'L	(16cc#LL	.
.	16a	.
8G#'	16bn	.
.	16g#JJ	.
8F#'	16aLL	.
.	16f#	.
8E'J	16g#	.
.	16eJJ	.
=44	=44	=44
8D#'L	16f#LL	.
.	16d#JJ)	.
*MM108	*MM108	*
!!LO:TX:a:i:t=poco rit.
8C#'J	(32eLLL	.
.	32d#J	.
*MM104	*MM104	*
.	16c#JJ)	.
*MM100	*MM100	*
8G#'L	8c#' 8e'L	.
*MM96	*MM96	*
8GG#'J	8B#' 8d#'J	.
=45	=45	=45
*MM88	*MM88	*
2CC# 2C#+	2c#mm	.
!!LO:LB:g=z
=46:|!|:	=46:|!|:	=46:|!|:
*>B	*>B	*>B
*MM112	*MM112	*
!!LO:TX:a:i:t=in tempo
2r	(16c#LL	mf
.	16g#	.
.	16f#	.
.	16g#JJ	.
.	16e#LL	.
.	16c#	.
.	16b	.
.	16g#JJ	.
=47	=47	=47
2r	16aLL	.
.	16f#	.
.	16dd	.
.	16bJJ	.
.	16cc#LL	.
.	16a	.
.	16ff#	.
.	16dd#JJ	.
=48	=48	=48
(16C#LL	8ee#')	.
16G#	.	.
16F#	(4gg#^	.
16G#JJ	.	.
16E#LL	.	.
16C#	.	.
16B	8ddn	.
16G#JJ	.	.
=49	=49	=49
16ALL	8cc#L	>
16F#	.	.
16d	8bJ	.
16BJJ	.	.
16c#LL	8aL	.
16A	.	.
16e#	8g#J)	.
16c#JJ	.	.
!!LO:LB:g=z
=50	=50	=50
8F#')	(32aLLL	mf
.	32g#J	.
.	16f#JJ)	.
8B (8dL	(16ddLL	p
.	16g#JJ	.
8A 8c#	16cc#LL	.
.	16f#	.
8G# 8BJ	16b	.
.	16e#JJ)	.
=51	=51	=51
8F# 8A)	(32aLLL	mf
.	32g#J	.
.	16f#JJ)	.
8B (8dL	(16ddLL	p
.	16g#JJ	.
8A 8c#	16cc#LL	.
.	16f#	.
8G# 8BJ	16b	.
.	16e#JJ)	.
=52	=52	=52
8F# 8A)	(32aLLL	mf
.	32g#J	.
.	16f#JJ)	.
8B (8dL	(16ddLL	p
.	16g#JJ	.
8A 8c#	16cc#LL	.
.	16f#	.
8Gn 8BJ	16b	.
.	16e#JJ)	.
=53	=53	=53
8F# 8c#)	(32a#LLL	f
.	32g#J	.
.	16f#JJ)	.
8En (8c#L	(16ggnLL	f
.	16a#JJ	.
8D 8B	16ff#LL	.
.	16b	.
8C# 8A#J)	16een	.
.	16cc#JJ)	.
!!LO:LB:g=z
=54	=54	=54
8BB' 8B'	(32ddLLL	.
.	32cc#J	.
.	16bJJ)	.
*	*^	*
8ryy	(8ff#L	(16f#LL	p
.	.	16bJJ	.
4ryy	8ggn^	16ddLL	.
.	.	16b	.
.	8ff#J)	16f#	.
.	.	16bJJ	.
=55	=55	=55	=55
8F#	8ryy	16cc#LL	.
.	.	16a#	.
8ryy	(8ff#L	16f#	.
.	.	16a#JJ	.
4ryy	8ggn^	16cc#LL	.
.	.	16a#	.
.	8ff#J)	16f#	.
.	.	16a#JJ	.
=56	=56	=56	=56
8BB	8ryy	16ddLL	.
.	.	16b	.
8ryy	(8ff#L	16f#	.
.	.	16bJJ	.
4ryy	8ggn^	16ddLL	.
.	.	16b	.
.	8ff#J)	16f#	.
.	.	16bJJ	.
=57	=57	=57	=57
8F#	8ryy	16cc#LL	.
.	.	16a#	.
8ryy	(8ff#L	16f#	.
.	.	16a#JJ	.
4ryy	8ggn^	16cc#LL	.
.	.	16a#	.
.	8ff#J)	16f#	.
.	.	16a#JJ	.
=58	=58	=58	=58
8B	8ryy	16dd#LL	pp
.	.	16b	.
8ryy	(8ff#L	16f#	.
.	.	16bJJ	.
4ryy	8gg#X^	16dd#LL	.
.	.	16b	.
.	8ff#J)	16f#	.
.	.	16bJJ)	.
!!LO:LB:g=z
=59	=59	=59	=59
8A#	8ryy	(<16ee#LL	.
.	.	16cc##	.
8ryy	(8aa#L	16a#	.
.	.	16cc##JJ	.
4ryy	8bb^	16ee#LL	.
.	.	16cc##	.
.	8aa#J)	16a#	.
.	.	16cc##JJ	.
=60	=60	=60	=60
8d#	8ryy	16ff#LL	.
.	.	16dd#	.
8ryy	(8aa#L	16a#	.
.	.	16dd#JJ	.
4ryy	8bb^	16ff#LL	.
.	.	16dd#	.
.	8aa#J)	16a#	.
.	.	16dd#JJ	.
=61	=61	=61	=61
8A#	8ryy	16ee#LL	<
.	.	16cc##	.
8ryy	(8aa#L	16a#	.
.	.	16cc##JJ	.
4ryy	8bb^	16ee#LL	.
.	.	16cc##	.
.	8aa#J)	16a#	.
.	.	16cc##JJ	[
*	*v	*v	*
=62	=62	=62
8D#	16ff##LL	mf
.	16dd#)	.
(8c#L	(16een	p
.	16cc#JJ	.
8B	16dd#LL	.
.	16b	.
8A#J	16cc#	.
.	16a#JJ)	.
!!LO:LB:g=z
=63	=63	=63
8G#)	(32bLLL	mf
.	32a#J	.
.	16g#JJ)	.
(8F#L	(16aanLL	p
.	16dd#JJ	.
8E	16gg#LL	.
.	16cc#	.
8D#J	16ff#	.
.	16b#JJ)	.
=64	=64	=64
8C#)	(32eeLLL	mf
.	32dd#J	.
.	16cc#JJ)	.
*	*^	*
(8BL	(8ee#L	(16ddnLL	<
.	.	16bJJ	.
8A	8ff#	16cc#LL	.
.	.	16a	.
8G#J	8gg#J)	16b	.
.	.	16g#JJ)	.
=65	=65	=65	=65
8F#L	8aa	(16ff#LL	.
.	.	16cc#JJ)	.
8E	(8aa#L	(16ggnLL	.
.	.	16eeJJ	.
8D	8bb	16ff#LL	.
.	.	16dd	.
8C#J	8aa#J)	16ee	.
.	.	16cc#JJ)	.
*	*v	*v	*
=66	=66	=66
[4BB^)	32dd^ (32bb^LLL	f
.	32aanJ	.
.	16gg#	.
.	16ff#	.
.	16ee#JJ	.
16BB]	16ff#'LL)	.
*clefG2	*	*
(16bLL	(16dd	.
16a	16cc#	.
16g#JJ)	16bJJ)	.
!!LO:LB:g=z
=67	=67	=67
[4A^	32cc#^ (32bb^LLL	.
.	32aaJ	.
.	16gg#	.
.	16ff#	.
.	16ee#JJ	.
16ALL]	16ff#'LL)	.
(16a	(16cc#	.
16g#	16b	.
16f#JJ)	16aJJ)	.
=68	=68	=68
[4B^	32dd^ (32bb^LLL	.
.	32aaJ	.
.	16gg#	.
.	16ff#	.
.	16ee#JJ	.
16BLL]	16ff#'LL)	.
(16b	(16dd	.
16a	16cc#	.
16g#JJ)	16bJJ)	.
=69	=69	=69
[4A^	32cc#^ (32bb^LLL	.
.	32aaJ	.
.	16gg#	.
.	16ff#	.
.	16ee#JJ	.
16ALL]	16ff#'LL)	.
(16a	(16cc#	.
16g#	16b	.
16f#JJ)	16aJJ)	.
=70	=70	=70
[4g#^	32dd^ (32bb^LLL	.
.	32aaJ	.
.	16gg#	.
.	16ee#	.
.	16ff#JJ	.
16g#LL]	16gg#'LL)	.
(16g#	(16b	.
16f#	16a	.
16e#JJ	16g#JJ)	.
!!LO:LB:g=z
=71	=71	=71
8f#)	(32aLLL	.
.	32g#J	.
.	16f#JJ)	.
*clefF4	*	*
8B (8dL	(16ddLL	p
.	16g#JJ	.
8A 8c#	16cc#LL	.
.	16f#	.
8G# 8BJ	16b	.
.	16e#JJ)	.
=72	=72	=72
8F# 8A)	(32aLLL	mf
.	32g#J	.
.	16f#JJ)	.
8B (8dL	(16ddLL	p
.	16g#JJ	.
8A 8c#	16cc#LL	.
.	16f#	.
8G# 8BJ	16b	.
.	16e#JJ)	.
=73	=73	=73
8F# 8A)	(32aLLL	mf
.	32g#J	.
.	16f#JJ)	.
8d (8f#+L	(16ff#LL	p
.	16bJJ	.
8c# 8en+	16eenLL	.
.	16a	.
8B 8d+J	16dd	.
.	16g#JJ	.
=74	=74	=74
8A 8c#L	16cc#LL	.
.	16f#	.
8G# 8B	16b	.
.	16e#JJ)	.
8F# 8A)	(32aLLL	mf
.	32g#J	.
.	16f#JJ)	.
(<8D^< 8B^<J	(<16e#LL	.
.	16f#JJ	.
!!LO:LB:g=z
=75	=75	=75
*	*^	*
8C#)	8ryy	16g#LL	.
.	.	16e#	p
8ryy	(8cc#L	16c#	.
.	.	16e#JJ	.
4ryy	8dd^	16g#LL	.
.	.	16e#	.
.	8cc#J)	16c#	.
.	.	16e#JJ	.
=76	=76	=76	=76
8FF#	8ryy	16aLL	.
.	.	16f#	.
8ryy	(8cc#L	16c#	.
.	.	16f#JJ	.
4ryy	8dd^	16aLL	.
.	.	16f#	.
.	8cc#J)	16c#	.
.	.	16f#JJ	.
=77	=77	=77	=77
8CC#	8ryy	16g#LL	.
.	.	16e#	.
8ryy	(8cc#L	16c#	.
.	.	16e#JJ	.
4ryy	8dd^	16g#LL	.
.	.	16e#	.
.	8cc#J)	16c#	.
.	.	16e#JJ	.
=78	=78	=78	=78
8FF#	8ryy	16aLL	.
.	.	16f#	.
8ryy	(8cc#L	16c#	.
.	.	16f#JJ	.
4ryy	8dd^	16aLL	.
.	.	16f#	.
.	8cc#J)	16c#	.
.	.	16f#JJ	.
=79	=79	=79	=79
8CC#	8ryy	16g#LL	.
.	.	16e#	.
8ryy	(8cc#L	16c#	.
.	.	16e#JJ	.
4ryy	8dd^	16g#LL	.
.	.	16e#	.
.	8cc#J)	16c#	.
.	.	16e#JJ	.
*	*v	*v	*
!!LO:LB:g=z
=80	=80	=80
8F#	(32aLLL	mf
.	32g#J	.
.	16f#JJ)	.
8B (8dL	(16ddLL	p
.	16g#JJ	.
8A 8c#	16cc#LL	.
.	16f#	.
8G# 8BJ	16b	.
.	16e#JJ)	.
=81	=81	=81
8F# 8A)	(32aLLL	mf
.	32g#J	.
.	16f#JJ)	.
8B (8dL	(16ddLL	p
.	16g#JJ	.
8A 8c#	16cc#LL	.
.	16f#	.
8G# 8BJ	16b	.
.	16e#JJ)	.
=82	=82	=82
8F# 8A)	(32aLLL	mf
.	32g#J	.
.	16f#JJ)	.
(8d 8f#+L	(16ff#LL	<
.	16bJJ	.
8c# 8en+	16eenLL	.
.	16a	.
8B 8d+J	16dd	.
.	16g#JJ	.
=83	=83	=83
8A 8c#)	16cc#LL	.
.	16f#)	.
(8G#L	(16bb	.
.	16gg#JJ	.
8F#	16aaLL	.
.	16ff#	.
8c#J	16gg#	.
.	16ee#JJ)	.
!!LO:LB:g=z
=84	=84	=84
8d')	(32ff#^LLL	f
.	32gg#J	.
.	16aaJJ)	.
8B^L	(32bb^LLL	.
.	32aaJ	.
.	16gg#JJ)	.
8c#^	(32aa^LLL	.
.	32gg#J	.
.	16ff#JJ)	.
8C#^J	(32gg#^LLL	.
.	32ff#J	.
.	16ee#JJ)	.
=85	=85	=85
8D' 8d'L	(32ff#^LLL	.
.	32eenJ	.
.	16ddJJ)	.
8C#' 8c#'	(32ee^LLL	.
.	32ddJ	.
.	16cc#JJ)	.
8BB' 8B'	(32dd^LLL	.
.	32cc#J	.
.	16bJJ)	.
8AA' 8A'J	(32cc#^LLL	.
.	32bJ	.
.	16aJJ)	.
=86	=86	=86
8GG#' 8G#'L	(32b^>LLL	.
.	32aJ	.
.	16g#JJ)	.
*MM108	*MM108	*
8FF#' 8F#'J	(32a^>LLL	.
.	32g#J	.
.	16f#JJ)	.
*MM104	*MM104	*
!	!LO:TX:c:i:t=rall.	!
8CC#' 8C#'L	8f#' 8a'L	.
*MM63	*MM63	*
8CC#' 8C#'J	8e#' 8g#'J	.
=87	=87	=87
*MM50	*MM50	*
2FF#	2f#^>MM<	.
==:|!	==:|!	==:|!
*-	*-	*-
!!!RDF**kern: > = above
!!!RDF**kern: < = below
!!!RDF**dynam: > = dim.
!!!RDF**kern: N = linked
!!!RDF**kern: + = marked note, optional, color=silver
!!!verovio: beamFrenchStyle 1
!!!URL-pdf: https://github.com/craigsapp/scarlatti-keyboard-sonatas/blob/master/reference-edition/L481K025.pdf
!!!URL-vhv: https://verovio.humdrum.org/?file=scarlatti/sonatas/L481K025.krn
!!!URL-pdf: https://github.com/craigsapp/scarlatti-keyboard-sonatas/blob/master/reference-edition/L481K025.pdf
!!!PTL: Domenico Scarlatti: Opere complete per clavicembalo
!!!PED: Longo, Alessandro
!!!PPR: Ricordi
!!!PPP: Milan
!!!PDT: 1906-1913
!!!YEC: 2021 Craig Stuart Sapp
!!!YEM: Licence: (CC BY-NC-SA 4.0) https://creativecommons.org/licenses/by-nc-sa/4.0
!!!ENC: Craig Stuart Sapp
!!!END: 2006/08/13
!!!EED: Craig Stuart Sapp
!!!EEV: 2022/04/18
